X:189
T:Queen's Delight,The. (p)1665.PLFD.189
M:6/4
L:1/4
Q:3/4=100
S:Playford, Dancing Master,2nd Supp. to 3rd Ed.,1665
O:England
H:166
Z:Chris Partington
K:Bb
G2AB>AG|d2ed2g|f>ede2f|1d3-d3:|2d3-d2|
|:a|a>gab2d|dg2c2f|f>edefd|cA2c2A|
B>ABc2c|d/d/ddd2d|=e>fgg2^f|g3-g3:|
